icon/fa/check-to-slot.svg

<svg xmlns="http://www.w3.org/2000/svg" viewBox="0 0 576 512"><!--! Font Awesome Free 6.1.2 by @fontawesome - https://fontawesome.com License - https://fontawesome.com/license/free (Icons: CC BY 4.0, Fonts: SIL OFL 1.1, Code: MIT License) Copyright 2022 Fonticons, Inc.--><path d="M480 80c0-26.51-21.5-48-48-48H144c-26.5 0-48 21.49-48 48v304h384V80zm-101.1 86.8-88 112a23.859 23.859 0 0 1-16.53 9.062c-.77-.762-1.67-.762-3.27-.762a23.835 23.835 0 0 1-15.58-5.769l-56-48C190.3 225.6 189.2 210.4 197.8 200.4c8.656-10.06 23.81-11.19 33.84-2.594l36.97 31.69 72.53-92.28c8.188-10.41 23.31-12.22 33.69-4.062C385.3 141.3 387.1 156.4 378.9 166.8zM528 288h-16v112c0 8.836-7.164 16-16 16H80c-8.84 0-16-7.2-16-16V288H48c-26.51 0-48 21.5-48 48v96c0 26.5 21.49 48 48 48h480c26.51 0 48-21.49 48-48v-96c0-26.5-21.5-48-48-48z"/></svg>

<svg xmlns="http://www.w3.org/2000/svg" viewBox="0 0 576 512" height="1em" width="1em">
<!--! Font Awesome Free 6.1.2 by @fontawesome - https://fontawesome.com License - https://fontawesome.com/license/free (Icons: CC BY 4.0, Fonts: SIL OFL 1.1, Code: MIT License) Copyright 2022 Fonticons, Inc.-->
  <path d="M480 80C480 53.49 458.5 32 432 32h-288C117.5 32 96 53.49 96 80V384h384V80zM378.9 166.8l-88 112c-4.031 5.156-10 8.438-16.53 9.062C273.6 287.1 272.7 287.1 271.1 287.1c-5.719 0-11.21-2.019-15.58-5.769l-56-48C190.3 225.6 189.2 210.4 197.8 200.4c8.656-10.06 23.81-11.19 33.84-2.594l36.97 31.69l72.53-92.28c8.188-10.41 23.31-12.22 33.69-4.062C385.3 141.3 387.1 156.4 378.9 166.8zM528 288H512v112c0 8.836-7.164 16-16 16h-416C71.16 416 64 408.8 64 400V288H48C21.49 288 0 309.5 0 336v96C0 458.5 21.49 480 48 480h480c26.51 0 48-21.49 48-48v-96C576 309.5 554.5 288 528 288z"/>
</svg>
